packages/icons/svg/Fill/person-remove.svg

<svg fill="none" height="24" viewBox="0 0 24 24" width="24" xmlns="http://www.w3.org/2000/svg"><path clip-rule="evenodd" d="m10 11c2.206 0 4-1.794 4-4s-1.794-4-4-4-4 1.794-4 4 1.794 4 4 4zm11-5h-4c-.55 0-1 .45-1 1s.45 1 1 1h4c.55 0 1-.45 1-1s-.45-1-1-1zm-4 13.9999c0 .552-.447 1-1 1h-12c-.553 0-1-.448-1-1 0-3.86 3.141-7 7-7s7 3.14 7 7z" fill="#6b7280" fill-rule="evenodd"/></svg>

<svg width="24" height="24" viewBox="0 0 24 24" fill="none" xmlns="http://www.w3.org/2000/svg">
<g id="Icon/Fill/person-remove">
<path id="Mask" fill-rule="evenodd" clip-rule="evenodd" d="M10 11C12.206 11 14 9.206 14 7C14 4.794 12.206 3 10 3C7.794 3 6 4.794 6 7C6 9.206 7.794 11 10 11ZM21 6H17C16.45 6 16 6.45 16 7C16 7.55 16.45 8 17 8H21C21.55 8 22 7.55 22 7C22 6.45 21.55 6 21 6ZM17 20C17 20.552 16.553 21 16 21H4C3.447 21 3 20.552 3 20C3 16.14 6.141 13 10 13C13.859 13 17 16.14 17 20Z" fill="#000000"/>
</g>
</svg>
